X:1
T:Title
%%score ( 1 2 ) { 3 | 4 }
L:1/8
M:4/4
K:Eb
V:1 treble nm="Bright Piano"
V:2 treble 
V:3 bass nm="Bright Piano"
V:4 bass 
V:1
 z4 z2[Q:1/4=100] E2 | [FB]2 [EB]2 [EA]2 [EG]2 | E2 z2 z4 | [CF]2 [DF]2 [EA]2 [EG]2 | %4
[M:3/4] [DF]4 z2 |[M:1/4] E2 |[M:4/4] [FB]2 [EB]2 [EA]2 [EG]2 | E2 z2 z4 | %8
 [CF]2 [DF]2 [EA]2 [EG]2 |[M:3/4] [DF]4 z2 |[M:1/4] [DF]2 |[M:4/4] [EG]2 F2 [EG]2 [C=A]2 | %12
 [DB]4 [EB]2 [FB]2 | [Ec]2 [Fd]2 [Ge]2 [Fc]2 | [Fd]4 z2 [FB]2 | [Ge]2 [Gd]2 [Ec]2 [EB]2 | %16
 A2- [DA]2 [EG]2 [B,F]2 | [B,E]2 [EG]2 [EF]2 [DF]2 |[M:3/4] [B,E]6 |] %19
V:2
 x8 | x8 | F2- [DF]2 [CE]2 [CE]2 | x8 |[M:3/4] x6 |[M:1/4] x2 |[M:4/4] x8 | F2- [DF]2 [CE]2 [CE]2 | %8
 x8 |[M:3/4] x6 |[M:1/4] x2 |[M:4/4] x8 | x8 | x8 | x8 | x8 | C2 z2 z4 | x8 |[M:3/4] x6 |] %19
V:3
 z4 z2 G,2 | B,2 G,2 C2 B,2 | B,4 G,2 A,2 | A,2 B,2 A,2 B,2 |[M:3/4] B,4 z2 |[M:1/4] G,2 | %6
[M:4/4] B,2 G,2 C2 B,2 | B,4 G,2 A,2 | A,2 B,2 A,2 B,2 |[M:3/4] B,4 z2 |[M:1/4] B,2 | %11
[M:4/4] B,2 B,2 G,2 F,2 | F,4 G,2 F,2 | G,2 B,2 B,2 =A,2 | B,4 z2 B,2 | B,2 B,2 A,2 G,2 | %16
 A,2 B,2 C2 F,2 | G,2 G,2 C2 B,A, |[M:3/4] G,6 |] %19
V:4
 z4 z2 E,2 | D,2 E,2 A,,2 E,2 | B,,4 C,2 A,,2 | F,,2 B,,2 C,D, E,2 |[M:3/4] B,,4 z2 |[M:1/4] E,2 | %6
[M:4/4] D,2 E,2 A,,2 E,2 | B,,4 C,2 A,,2 | F,,2 B,,2 C,D, E,2 |[M:3/4] B,,4 z2 |[M:1/4] B,,2 | %11
[M:4/4] E,2 D,2 C,2 z2 | B,,4 E,2 D,2 | C,2 B,,2 E,2 F,2 | B,,4 z2 D,2 | E,2 G,2 z2 E,2 | %16
 F,4 C,2 D,2 | E,2 C,2 A,,2 B,,2 |[M:3/4] E,6 |] %19

